src/images/background-pattern-desktop.svg

<?xml version="1.0" encoding="UTF-8"?>
<svg xmlns="http://www.w3.org/2000/svg" xmlns:xlink="http://www.w3.org/1999/xlink" width="1920px" height="427px" viewBox="0 0 1921 427" version="1.1">
<g id="surface1">
<rect x="0" y="0" width="1921" height="427" style="fill:rgb(18.823529%,8.235294%,20.392157%);fill-opacity:1;stroke:none;"/>
<path style="fill:none;stroke-width:3;stroke-linecap:round;stroke-linejoin:miter;stroke:rgb(67.843137%,15.686275%,92.156863%);stroke-opacity:1;stroke-miterlimit:4;" d="M -676.001432 -181.999415 C -453.99987 -10 -396.862637 71.888173 -197.498699 143.501171 C -99.001171 178.881733 -36.918272 170.725995 -4.752408 170.108314 C 99.73614 168.09719 199.858798 126.870609 293.882093 84.613583 C 332.235164 67.374122 369.765422 48.425059 405.945796 26.98185 C 429.848386 12.819087 464.813574 -6.929157 470.66697 -37.435597 C 472.986075 -49.540398 454.295614 -49.677986 446.896148 -47.224824 C 433.382678 -42.751756 420.943844 -30.682084 410.838756 -21.557377 C 391.709071 -4.282787 373.777004 14.391101 357.604763 34.473068 C 323.87526 76.358314 289.568909 134.721897 323.44482 186.487119 C 340.732691 212.903981 367.384826 232.180913 395.556676 245.614754 C 451.739328 272.406323 514.762168 284.355972 576.335567 289.759953 C 740.775312 304.192037 905.299974 286.299766 1059.338886 226.138759 C 1139.099102 194.991218 1217.890096 155.600117 1283.568779 99.894614 C 1332.129425 58.709016 1386.370705 3.346019 1394.229893 -63.00644 C 1405.160724 -155.193208 1300.189029 -199.069087 1224.941111 -211.422717 C 1163.528761 -221.507611 1101.191111 -215.588407 1040.870966 -201.83548 C 962.607041 -183.995902 891.862637 -154.165691 826.629034 -107.453162 C 696.627408 -14.358899 591.679138 120.960187 554.163522 278.375293 C 538.524206 343.998829 537.51399 416.583724 559.656754 480.925059 C 581.108472 543.264052 628.85216 591.501756 683.705427 625.848946 C 748.821903 666.62178 820.866411 687.988876 896.54184 699.060304 C 997.015877 713.755855 1099.36101 711.290984 1199.568584 696.062646 C 1375.738548 669.288642 1552.300885 607.631733 1704.749805 514.985363 C 1807.970458 452.259953 1904.049323 380.834309 1984.810971 290.559133 C 2002.508784 270.766979 2016.619599 249.683841 2028.548933 226.039227 C 2172.11088 -58.501171 2095.501366 -145.526932 2095.501366 -151.001171 " transform="matrix(1.334028,0,0,1.334375,0,0)"/>
</g>
</svg>

<svg xmlns="http://www.w3.org/2000/svg" width="1440" height="320" fill="none" viewBox="0 0 1440 320"><g clip-path="url(#a)"><path fill="#301534" d="M0 0h1440v320H0z"/><path stroke="#AD28EB" stroke-linecap="round" stroke-width="3" d="M-676-182C-454-10-396.863 71.888-197.5 143.5-99 178.882-36.919 170.726-4.751 170.108c104.487-2.01 204.609-43.237 298.633-85.495 38.354-17.238 75.882-36.189 112.063-57.63 23.903-14.165 58.87-33.913 64.721-64.42 2.32-12.102-16.369-12.24-23.771-9.789-13.511 4.474-25.95 16.544-36.056 25.669-19.131 17.273-37.062 35.948-53.235 56.031-33.728 41.883-68.034 100.247-34.158 152.014 17.287 26.415 43.94 45.693 72.112 59.127 56.182 26.791 119.205 38.742 180.778 44.146 164.438 14.432 328.964-3.461 483.004-63.622 79.76-31.148 158.55-70.539 224.23-126.245 48.56-41.186 102.8-96.548 110.66-162.9 10.93-92.187-94.04-136.062-169.29-148.418-61.41-10.084-123.75-4.164-184.07 9.588-78.262 17.84-149.006 47.67-214.241 94.384-130.002 93.093-234.95 228.413-272.466 385.827-15.64 65.625-16.648 138.21 5.493 202.551 21.452 62.338 69.196 110.576 124.048 144.923 65.117 40.774 137.161 62.14 212.839 73.21 100.474 14.696 202.817 12.233 303.027-2.997 176.17-26.772 352.73-88.431 505.18-181.077 103.22-62.725 199.3-134.15 280.06-224.425 17.7-19.793 31.81-40.875 43.74-64.521C2172.11-58.5 2095.5-145.528 2095.5-151"/></g><defs><clipPath id="a"><path fill="#fff" d="M0 0h1440v320H0z"/></clipPath></defs></svg>
